X: 33469
T: Radical Road, The
R: slip jig
M: 9/8
K: Amixolydian
M:5/4
ecA ecA AA c2|ecA ecA dfce|ecA ecA AA c2|M:9/8
dfd cec B3:|
M:5/4
A2 e2 cAA ccc|A2 e2 BGG BBB|A2 e2 cAA ccc|M:9/8
dfd cec B3:|
M:5/4
ecA ecA AA c2|ecA aec dfaf|ecA ecA AA c2|M:9/8
dfd cec B3:|

